packages/kaspersky-hexa-ui-icons/src/iconsSVGs/64x42/FlagGw.svg

<svg xmlns="http://www.w3.org/2000/svg" width="64" height="42" fill="none" viewBox="0 0 64 42"><g clip-path="url(#a)"><rect width="64" height="42" fill="#fff" rx="5"/><path fill="#1ab558" fill-rule="evenodd" d="M0 42h64V21H0z" clip-rule="evenodd"/><path fill="#ffd952" fill-rule="evenodd" d="M0 21h64V0H0z" clip-rule="evenodd"/><path fill="#e72b42" fill-rule="evenodd" d="M0 42h22.4V0H0z" clip-rule="evenodd"/><path fill="#262626" fill-rule="evenodd" d="m11.2 23.6846-4.1145 2.9786 1.5613-4.8336-4.1042-2.9927 5.0794-.0087L11.2 14l1.5779 4.8282 5.0794.0087-4.1042 2.9927 1.5613 4.8336z" clip-rule="evenodd"/></g><defs><clipPath id="a"><rect width="64" height="42" fill="#fff" rx="5"/></clipPath></defs></svg>

<svg width="64" height="42" viewBox="0 0 64 42" fill="none" xmlns="http://www.w3.org/2000/svg">
<g clip-path="url(#clip0_37941_2247)">
<rect width="64" height="42" rx="5" fill="white"/>
<path fill-rule="evenodd" clip-rule="evenodd" d="M0 42H64V21H0V42Z" fill="#1AB558"/>
<path fill-rule="evenodd" clip-rule="evenodd" d="M0 21H64V0H0V21Z" fill="#FFD952"/>
<path fill-rule="evenodd" clip-rule="evenodd" d="M0 42H22.4V0H0V42Z" fill="#E72B42"/>
<path fill-rule="evenodd" clip-rule="evenodd" d="M11.2 23.6846L7.08545 26.6632L8.64679 21.8296L4.54256 18.8369L9.62201 18.8282L11.2 14L12.7779 18.8282L17.8573 18.8369L13.7531 21.8296L15.3144 26.6632L11.2 23.6846Z" fill="#262626"/>
</g>
<defs>
<clipPath id="clip0_37941_2247">
<rect width="64" height="42" rx="5" fill="white"/>
</clipPath>
</defs>
</svg>
